docs/images/info-alt/4.svg

<svg width="67" height="82" viewBox="0 0 67 82" fill="none" xmlns="http://www.w3.org/2000/svg">
<path d="M17.7305 10.5229V4.59781H20.9497C26.81 4.59781 30.8365 6.66586 30.8365 14.5195C30.8365 18.8499 27.3482 20.5642 25.2153 20.5642C19.5095 20.5642 17.7305 15.8301 17.7305 10.5229Z" fill="#2B3B46"/>
<path d="M45.2356 0L31.8172 26.831L39.2158 30.531L52.6341 3.70008L45.2356 0Z" fill="#2B3B46"/>
<path d="M17.4016 76.8551C13.5595 70.8602 7.68922 58.0233 5.41685 33.5007H61.5832C58.8274 58.2476 52.6681 71.0595 48.7114 76.9796C46.8975 79.6905 43.7132 81.34 40.2698 81.34C38.5904 81.34 36.3579 81.34 33.4028 81.34C30.1488 81.34 27.7219 81.34 25.923 81.34C22.4297 81.34 19.1856 79.6457 17.3966 76.8551H17.4016Z" fill="#2B3B46"/>
<path d="M66.5664 25.5225H0.433594V34.4924H66.5664V25.5225Z" fill="#2B3B46"/>
</svg>

<svg xmlns="http://www.w3.org/2000/svg" width="67" height="82" fill="none"><path fill="#2B3B46" d="M17.73 10.523V4.598h3.22c5.86 0 9.887 2.068 9.887 9.922 0 4.33-3.489 6.044-5.622 6.044-5.706 0-7.485-4.734-7.485-10.041M45.236 0 31.817 26.831l7.399 3.7 13.418-26.83zM17.402 76.855C13.559 70.86 7.689 58.023 5.417 33.501h56.166C58.827 58.248 52.668 71.06 48.711 76.98c-1.813 2.71-4.998 4.36-8.441 4.36H25.923c-3.493 0-6.737-1.694-8.526-4.485z"/><path fill="#2B3B46" d="M66.566 25.523H.434v8.97h66.132z"/></svg>
